img/lable-new.svg

<svg width="70" height="70" viewBox="0 0 70 70" fill="none" xmlns="http://www.w3.org/2000/svg">
<mask id="mask0" mask-type="alpha" maskUnits="userSpaceOnUse" x="0" y="0" width="70" height="70">
<rect width="70" height="70" fill="#C4C4C4"/>
</mask>
<g mask="url(#mask0)">
<rect x="22.2133" y="-23" width="100" height="30" transform="rotate(45 22.2133 -23)" fill="#EE3643"/>
<path d="M34.4527 19.1096L41.3823 12.1799L42.3723 13.1699L39.5014 20.0995L39.5509 20.149L44.4512 15.2488L45.3421 16.1397L38.4125 23.0694L37.4225 22.0794L40.2934 15.1498L40.2439 15.1003L35.3436 20.0005L34.4527 19.1096ZM39.7988 24.4557L46.7284 17.526L50.0943 20.8919L49.4013 21.5848L46.9264 19.1099L44.6496 21.3868L46.8274 23.5647L46.1345 24.2577L43.9566 22.0798L41.3827 24.6537L43.8576 27.1285L43.1646 27.8215L39.7988 24.4557ZM44.899 29.5558L50.6902 21.4878L51.5811 22.3787L47.1264 28.6154L47.1759 28.6649L52.3236 25.695L53.2145 26.586L50.2447 31.7337L50.2942 31.7832L56.5309 27.3285L57.4218 28.2194L49.3537 34.0106L48.2648 32.9217L51.3039 27.6452L51.2643 27.6056L45.9879 30.6448L44.899 29.5558Z" fill="white"/>
</g>
</svg>

<svg width="70" height="70" fill="none" xmlns="http://www.w3.org/2000/svg"><mask id="a" maskUnits="userSpaceOnUse" x="0" y="0" width="70" height="70"><path fill="#C4C4C4" d="M0 0h70v70H0z"/></mask><g mask="url(#a)"><path fill="#EE3643" d="M22.21-23l70.71 70.7-21.21 21.22L1-1.78z"/><path d="M34.45 19.11l6.93-6.93 1 .99-2.88 6.93.05.05 4.9-4.9.9.89-6.94 6.93-.99-1 2.87-6.92-.05-.05-4.9 4.9-.89-.89zm5.35 5.35l6.93-6.93 3.36 3.36-.69.7-2.47-2.48-2.28 2.28 2.18 2.17-.7.7-2.17-2.18-2.58 2.57 2.48 2.48-.7.7-3.36-3.37zm5.1 5.1l5.79-8.07.9.89-4.46 6.24.05.04 5.14-2.96.9.89-2.98 5.14.05.05 6.24-4.45.9.89-8.08 5.8-1.09-1.1 3.04-5.27-.04-.04L46 30.64l-1.1-1.08z" fill="#fff"/></g></svg>
